X:132
T: Der Honef di wor gor klin, gor klin,
N: D0200
O: Europa, Suedosteuropa, Rumaenien, Siebenbuergen
N: Inzipit = Transposition zum Lied
R: Scherz - Lied
M: 6/8
L: 1/16
K: D
A2 | d2c2B2A4F2 | E4F2D4
A2 | d2c2B2A4F2 | E4F2D4
D2 | G3AB2A4D2 | G4B2A4
A2 | d2c2B2A2B2A2 | G2F2E2D2z2

@@@ Tune index: 2654
